src/pos-icons/microsoft-azure.svg

<svg height="24" viewBox="0 0 24 24" width="24" xmlns="http://www.w3.org/2000/svg"><path d="m13.05 4.24-6.49 13.81-4.56-.05 5.09-8.76zm.7 1.09 8.25 14.43h-15.26l9.3-1.66-4.87-5.79z"/></svg>

<?xml version="1.0" encoding="UTF-8"?><!DOCTYPE svg PUBLIC "-//W3C//DTD SVG 1.1//EN" "http://www.w3.org/Graphics/SVG/1.1/DTD/svg11.dtd"><svg xmlns="http://www.w3.org/2000/svg" xmlns:xlink="http://www.w3.org/1999/xlink" version="1.1" id="mdi-microsoft-azure" width="24" height="24" viewBox="0 0 24 24"><path d="M13.05,4.24L6.56,18.05L2,18L7.09,9.24L13.05,4.24M13.75,5.33L22,19.76H6.74L16.04,18.1L11.17,12.31L13.75,5.33Z" /></svg>
